X:2107
T:Slängpolska från England
R:Slängpolska
M:3/4
L:1/8
Z: Anton Teljebäck
K:Am
|: ve2 A2 a2 | g/a/b (ea) g2 | eg/f/ e(g e)c | d(g g)d (BG) |
ce ^f2 e>(f |e)>(^f e/d/)c/B/ A2 :|
|:vec ce ge | dB Bd ge | (ce) A(c B)A | B2 c2 BA | 
(Bc) e(B c)A | (fa) b(f g)e | ae f/e/d e/d/c | c>(d e/d/)c/B/ A2 :|
(:musicend:)

(:music:)
